X: 7576
T: Cocktail, The
R: reel
M: 4/4
K: Dmajor
DFF2 D2fe|dFF2 AFEF|DFF2 D2ed|cAAG EFGE|
DFF2 D2fe|dFF2 AFEF|DFF2 D2ed|cAAG EFGB||
A2 A/A/A eA A/A/A|eA A/A/A BFGB|A2 A/A/A eA A/A/A|gedB GBdB|
A2 A/A/A eA A/A/A|eA A/A/A BFGB|A2 A/A/A eaag|fgef dBAF:|

